X:1
T:Betlehem, Betlehem
C:Traditional
Z:Public Domain
L:1/8
M:2/4
K:C
V:1 treble nm="Voice"
%%MIDI program 52
V:1
"Am" AB c2 |"E" dc B2 |"Am" ee dc |"E" B2 B2 |"E" BB"Am" e2 | ed"E" c2 |"Am" AB"E" cB | %7
w: Bet- le- hem,|Bet- le- hem,|a te ha- tá-|rid- ba|Ér- ke- zett|Má- ri- a|ron- gyos is- tál-|
"Am" A2 A2 |] %8
w: ló- ba.-|

